X: 1
T: Molly Saint George
Z: Madelyn
S: https://thesession.org/tunes/15205#setting28258
R: reel
M: 4/4
L: 1/8
K: Dmaj
AB c2|d4 d2 c2|B2 A2 A4|B2 A2 G2 F2|G4 F4|E3 D B,4-|B,4 EF A2|B4 {cd}c4|cB AF E4|F4 A2 A,2|A,B, D2 TE4-|E2 D2 D4:|
A,B,C2D4| D2 E2 F2 E2|F4 F4|DE F2 G3 F|G2 A2 B2 c2|d4 D4|AB d2 e4|f4 fe dB|A4 {Bcd}B4|
BA F2 E4|E2 F2 A3 F|E4 E2 F2|G3 F G2 A2|B2 c2 d3 B|e3 d c2 {Bd}B2|A2 B2 d2 F2|E2 D2 HB,4|B2 c2 d2 dc|B2 A2 G2 F2|G3 F E2 D2|B,2 B,A, B,2 D2|
TE6 D2|D8|]
